X:1
T: The De'il among the Mantua Makers
T: The Mantua Makers
C:William Marshall
R:Reel
Q: 232
K:A
M:4/4
L:1/8
|:c3d ed cd|ef ga fe dc|c3d ed cd|fe dc c2 B2|
c3d ed cd|ef ga fe dc|c3d ed cd|fe dc c2 B2|
E3G BG EG|AB cd ec Ac|E3G BG EA|cA ec c2 B2|
E3G BG EG|AB cd ec Ac|df dB ce cA|dB AG A2 A2:|
